solar-panel.svg

<svg fill="currentColor" viewBox="0 0 24 24"><path d="M4 2h16a2 2 0 0 1 2 2v10a2 2 0 0 1-2 2h-5v4h3v2h-5v-6h-2v6H6v-2h3v-4H4a2 2 0 0 1-2-2V4a2 2 0 0 1 2-2m0 2v4h7V4zm0 10h7v-4H4zm16 0v-4h-7v4zm0-10h-7v4h7z"/></svg>

<svg  viewBox="0 0 24 24" fill="currentColor"><path  d="M4,2H20A2,2 0 0,1 22,4V14A2,2 0 0,1 20,16H15V20H18V22H13V16H11V22H6V20H9V16H4A2,2 0 0,1 2,14V4A2,2 0 0,1 4,2M4,4V8H11V4H4M4,14H11V10H4V14M20,14V10H13V14H20M20,4H13V8H20V4Z"/></svg>
